assets/images/logo.svg

<svg width="111" height="28" viewBox="0 0 111 28" fill="none" xmlns="http://www.w3.org/2000/svg">
<path d="M27.3441 5.58228C20.8133 5.58228 15.9229 10.3533 15.9229 16.6816C15.9229 23.0099 20.8896 27.7733 27.4738 27.7733C29.9533 27.7733 32.2955 27.1168 34.2563 25.8573C36.0797 24.6817 37.4988 23.0481 38.3685 21.1168H33.4628C32.2574 22.8496 30.0067 23.9107 27.5653 23.9107C24.0939 23.9107 21.4008 21.8038 20.6836 18.5442L20.6226 18.3H38.7119C38.7805 17.8267 38.811 17.1625 38.811 16.7198H38.8263C38.8263 10.3686 33.8977 5.58228 27.3517 5.58228H27.3441ZM20.6531 14.8037L20.7294 14.5442C21.5839 11.4449 24.1779 9.44491 27.3517 9.44491C30.5255 9.44491 33.2263 11.4984 34.0198 14.5442L34.0961 14.8037H20.6607H20.6531Z" fill="white"/>
<path d="M6.75964 11.0709C5.77545 11.9259 5.36346 13.2007 5.36346 14.4755V27.7657H0V5.60522H5.22614V8.46785L5.71442 7.91822C6.72913 6.77317 8.9035 5.60522 11.467 5.60522C13.6719 5.60522 15.1978 6.13958 16.6626 7.4373L13.9084 11.8419C12.9852 10.9412 11.9171 10.2618 10.6201 10.1244C10.2386 10.0862 9.84955 10.0709 9.46045 10.0862C8.47626 10.132 7.51495 10.4068 6.75964 11.0709Z" fill="white"/>
<path d="M50.7283 27.7655C56.4656 27.7655 60.6389 24.9868 60.6389 21.1471C60.6389 17.9257 57.7702 15.8264 51.8651 14.7425C48.1801 14.1012 46.3109 13.0402 46.3109 11.5821C46.3109 10.1241 48.1572 9.04011 50.6138 9.04011C53.0705 9.04011 55.077 10.2691 55.077 11.8951V12.002H60.1582V11.8951C60.1582 8.26148 56.0688 5.521 50.652 5.521C45.2351 5.521 41.222 8.19278 41.222 11.8646C41.222 15.0173 44.1822 17.2768 49.5533 18.2387C53.5588 18.9333 55.5119 20.002 55.5119 21.4982C55.5119 23.0708 53.4901 24.2616 50.8122 24.2616C48.1343 24.2616 45.8302 22.8876 45.8302 21.1318V21.025H40.749V21.1318C40.749 24.9258 45.0444 27.7807 50.7359 27.7807" fill="white"/>
<path d="M89.6224 23.6053C88.1652 23.6053 86.9826 23.4374 87.0513 20.903V5.58228H82.3134V9.80369L81.9548 9.3533C80.0246 6.9258 77.1636 5.58228 73.9058 5.58228H73.8906C67.4437 5.58228 62.5762 10.3457 62.5762 16.674C62.5762 23.0023 67.4437 27.7733 73.8906 27.7733C77.2475 27.7733 80.2687 26.2848 82.1685 23.7122L82.4126 23.3763L82.5194 23.7733C83.1374 26.0557 85.1516 27.7657 88.3406 27.7657H89.6071V23.6053H89.6224ZM74.3941 23.6053C70.4421 23.6053 67.459 20.6206 67.459 16.6663C67.459 12.7121 70.4421 9.73499 74.3941 9.73499C78.3461 9.73499 81.2835 12.7197 81.2835 16.6663C81.2835 20.6129 78.3309 23.6053 74.3941 23.6053Z" fill="white"/>
<path d="M108.887 22.4831C108.887 22.4831 107.208 23.8648 105.125 23.7579C103.645 23.6816 103.34 23.3152 103.34 23.3152C103.34 23.3152 108.215 18.2311 108.52 9.68907C108.772 2.85694 104.881 0.192797 101.166 0.0095894C97.4121 -0.181252 93.3456 2.46763 92.7581 8.7425C91.9799 17.0708 96.9085 23.1625 96.9085 23.1625C96.9085 23.1625 96.0693 23.7732 93.3227 23.6052V27.7656C93.3227 27.7656 97.5875 27.9488 99.9832 26.2617C101.036 27.0709 102.966 28.2618 106.087 27.9488C108.757 27.6816 111 26.1549 111 26.1549L108.879 22.4754L108.887 22.4831ZM100.25 20.5212C99.0982 18.9487 97.5418 15.1777 97.5418 10.6891C97.5418 7.95623 98.2894 5.03254 100.937 5.21574C103.447 5.38369 103.828 8.26921 103.577 10.941C103.157 15.483 101.639 19.0403 100.243 20.5289L100.25 20.5212Z" fill="white"/>
</svg>

<svg width="111" height="28" fill="none" xmlns="http://www.w3.org/2000/svg"><path d="M27.344 5.582c-6.53 0-11.421 4.771-11.421 11.1 0 6.328 4.967 11.091 11.55 11.091 2.48 0 4.822-.656 6.783-1.916 1.824-1.175 3.243-2.809 4.112-4.74h-4.905c-1.206 1.733-3.456 2.794-5.898 2.794-3.471 0-6.164-2.107-6.881-5.367l-.061-.244h18.089c.069-.473.099-1.137.099-1.58h.015c0-6.351-4.928-11.138-11.474-11.138h-.008Zm-6.69 9.222.075-.26c.855-3.1 3.449-5.1 6.623-5.1 3.174 0 5.874 2.054 6.668 5.1l.076.26H20.653ZM6.76 11.07c-.985.856-1.397 2.13-1.397 3.405v13.29H0V5.606h5.226v2.863l.488-.55c1.015-1.145 3.19-2.313 5.753-2.313 2.205 0 3.73.535 5.196 1.832l-2.755 4.405c-.923-.9-1.99-1.58-3.288-1.718a8.363 8.363 0 0 0-1.16-.038c-.984.046-1.945.32-2.7.985ZM50.728 27.765c5.738 0 9.91-2.778 9.91-6.618 0-3.221-2.868-5.32-8.773-6.404-3.685-.642-5.554-1.703-5.554-3.16 0-1.459 1.846-2.543 4.303-2.543s4.463 1.23 4.463 2.855v.107h5.081v-.107c0-3.634-4.09-6.374-9.506-6.374-5.417 0-9.43 2.672-9.43 6.344 0 3.152 2.96 5.412 8.331 6.374 4.006.694 5.959 1.763 5.959 3.26 0 1.572-2.022 2.763-4.7 2.763-2.678 0-4.982-1.374-4.982-3.13v-.107H40.75v.107c0 3.794 4.295 6.649 9.987 6.649M89.622 23.605c-1.457 0-2.64-.168-2.57-2.702V5.583h-4.739v4.22l-.358-.45c-1.93-2.427-4.791-3.77-8.05-3.77h-.014c-6.447 0-11.315 4.763-11.315 11.091 0 6.328 4.868 11.1 11.315 11.1 3.356 0 6.378-1.49 8.277-4.062l.245-.336.106.397c.618 2.283 2.633 3.993 5.822 3.993h1.266v-4.16h.015Zm-15.228 0c-3.952 0-6.935-2.984-6.935-6.939 0-3.954 2.983-6.931 6.935-6.931 3.952 0 6.89 2.985 6.89 6.931 0 3.947-2.953 6.94-6.89 6.94ZM108.887 22.483s-1.679 1.382-3.762 1.275c-1.48-.076-1.785-.443-1.785-.443s4.875-5.084 5.18-13.626c.252-6.832-3.639-9.496-7.354-9.68-3.754-.19-7.82 2.459-8.408 8.733-.778 8.329 4.15 14.42 4.15 14.42s-.839.611-3.585.443v4.16s4.265.184 6.66-1.503c1.053.809 2.983 2 6.104 1.687 2.67-.267 4.913-1.794 4.913-1.794l-2.121-3.68.008.008Zm-8.637-1.962c-1.152-1.572-2.708-5.343-2.708-9.832 0-2.733.747-5.656 3.395-5.473 2.51.168 2.891 3.053 2.64 5.725-.42 4.542-1.938 8.1-3.334 9.588l.007-.008Z" fill="#fff"/></svg>
